icons/split.svg

<svg width="14" height="14" viewBox="0 0 14 14" fill="none" xmlns="http://www.w3.org/2000/svg">
<path d="M5 2.5C5.27614 2.5 5.5 2.72386 5.5 3C5.5 3.27614 5.27614 3.5 5 3.5H4.5L5.2998 4.09961C6.04475 4.65831 6.62292 5.38914 7 6.21387C7.37708 5.38914 7.95525 4.65831 8.7002 4.09961L9.5 3.5H9C8.72386 3.5 8.5 3.27614 8.5 3C8.5 2.72386 8.72386 2.5 9 2.5H11.5V5C11.5 5.27614 11.2761 5.5 11 5.5C10.7239 5.5 10.5 5.27614 10.5 5V4L9.2998 4.90039C8.16687 5.75025 7.5 7.08372 7.5 8.5V11C7.5 11.2761 7.27614 11.5 7 11.5C6.72386 11.5 6.5 11.2761 6.5 11V8.5C6.5 7.08372 5.83313 5.75025 4.7002 4.90039L3.5 4V5C3.5 5.27614 3.27614 5.5 3 5.5C2.72386 5.5 2.5 5.27614 2.5 5V2.5H5Z" fill="red"/>
</svg>

<svg xmlns="http://www.w3.org/2000/svg" width="14" height="14" fill="none" viewBox="0 0 14 14"><path fill="red" d="M5 2.5a.5.5 0 0 1 0 1h-.5l.8.6A5.5 5.5 0 0 1 7 6.214 5.5 5.5 0 0 1 8.7 4.1l.8-.6H9a.5.5 0 0 1 0-1h2.5V5a.5.5 0 0 1-1 0V4l-1.2.9a4.5 4.5 0 0 0-1.8 3.6V11a.5.5 0 0 1-1 0V8.5a4.5 4.5 0 0 0-1.8-3.6L3.5 4v1a.5.5 0 0 1-1 0V2.5z"/></svg>
